X: 1587
T: Pür Arak
C: Ahmet Avni Konuk
O: Turkey
F: http://compmusic.upf.edu/node/140
N: irak--kupe--agirevfer--pur--ahmet_avni_konuk
N: makam= irak
N: form= kupe
N: usul= agirevfer = 9/4
M: 9/4
L: 1/16
K: C _2/4B ^3/4f  
Q: 1/4=72
%%MIDI tuningsystem comma53
A4 F2G2 A4 A4 A2c2 B2A2 A2G2 AGF^3/4E F4  | \
w:  Ah  pür  *  *  A rak  *  *  *  keyf_  | 
z4 E2F2 G2A2 G2B2 A2G4AB AGF^3/4E F4 z4  | 
w:  i  *  *  *  *  A rak *  *  *  la   | 
z4 F2d2 d2dc d4 d2e2 d2c2 e2dc c6BA  | \
w:  gel *  *  *  *  di  ol  *  *  *  şûh_  | 
B2z2 A2c2 B4 A4 A2AG F2G2 A8 z4  | 
w:  *  i  *  *  A rak    | 
z4 G2B2 B4 B4 B3A G4 cBBA B2c2 B4  | \
w:  Ey *  *  le di  *  *  üf  | 
z4 c2d2 c4 B4 B2A4B2 A2AG F4 z4  | 
w:  tâ *  *  de gâ *  *  nın   | 
z4 F8 G4 A2B2 G2A2 B2A2 B2d2 c2B2  | \
w:  tâ ka tin  *  *  *  cev  | 
z2A4F2 G2F2 G2AB A3G G2GF F8 z4  | 
w:  riy *  *  *  *  le  *  tâk    | 
|


